/* XPM */
static char *d8e5d37ee1c047c9cf17cc252c4a23cb9HOC1s1R6kwRhe94[] = {
/* columns rows colors chars-per-pixel */
"64 64 4 1 ",
"  c #352B26",
". c #997D57",
"X c #C3AA83",
"o c #E2CFA4",
/* pixels */
"                                                                ",
"                                                                ",
"                                                                ",
"                                                                ",
"        oooooooooooooooooooooooooooooooooooooooooooooooo        ",
"        oooooooooooooooooooooooooooooooooooooooooooooooo        ",
"        oooooooooooooooooooooooooooooooooooooooooooooooo        ",
"        oooooooooooooooooooooooooooooooooooooooooooooooo        ",
"    ooooooooooooXXXXooooooooooooXXXXXXXXXXXXXXXXoooooooooooo    ",
"    ooooooooooooXXXXooooooooooooXXXXXXXXXXXXXXXXoooooooooooo    ",
"    ooooooooooooXXXXooooooooooooXXXXXXXXXXXXXXXXoooooooooooo    ",
"    ooooooooooooXXXXooooooooooooXXXXXXXXXXXXXXXXoooooooooooo    ",
"    ooooooooXXXXXXXXooooooooooooXXXXXXXXXXXXXXXXXXXXoooooooo    ",
"    ooooooooXXXXXXXXooooooooooooXXXXXXXXXXXXXXXXXXXXoooooooo    ",
"    ooooooooXXXXXXXXooooooooooooXXXXXXXXXXXXXXXXXXXXoooooooo    ",
"    ooooooooXXXXXXXXooooooooooooXXXXXXXXXXXXXXXXXXXXoooooooo    ",
"    ooooXXXXXXXXXXXXooooooooooooXXXXooooooooXXXXXXXXXXXXoooo    ",
"    ooooXXXXXXXXXXXXooooooooooooXXXXooooooooXXXXXXXXXXXXoooo    ",
"    ooooXXXXXXXXXXXXooooooooooooXXXXooooooooXXXXXXXXXXXXoooo    ",
"    ooooXXXXXXXXXXXXooooooooooooXXXXooooooooXXXXXXXXXXXXoooo    ",
"    ooooXXXXooooXXXXXXXXXXXXXXXXXXXXooooooooXXXXXXXXXXXXoooo    ",
"    ooooXXXXooooXXXXXXXXXXXXXXXXXXXXooooooooXXXXXXXXXXXXoooo    ",
"    ooooXXXXooooXXXXXXXXXXXXXXXXXXXXooooooooXXXXXXXXXXXXoooo    ",
"    ooooXXXXooooXXXXXXXXXXXXXXXXXXXXooooooooXXXXXXXXXXXXoooo    ",
"    ooooXXXXXXXXXXXXXXXXXXXXXXXXXXXXXXXXXXXXXXXXXXXXXXXXoooo    ",
"    ooooXXXXXXXXXXXXXXXXXXXXXXXXXXXXXXXXXXXXXXXXXXXXXXXXoooo    ",
"    ooooXXXXXXXXXXXXXXXXXXXXXXXXXXXXXXXXXXXXXXXXXXXXXXXXoooo    ",
"    ooooXXXXXXXXXXXXXXXXXXXXXXXXXXXXXXXXXXXXXXXXXXXXXXXXoooo    ",
"    ooooXXXXXXXX........XXXXXXXXXXXXXXXXXXXXXXXXooooXXXXoooo    ",
"    ooooXXXXXXXX........XXXXXXXXXXXXXXXXXXXXXXXXooooXXXXoooo    ",
"    ooooXXXXXXXX........XXXXXXXXXXXXXXXXXXXXXXXXooooXXXXoooo    ",
"    ooooXXXXXXXX........XXXXXXXXXXXXXXXXXXXXXXXXooooXXXXoooo    ",
"    ....XXXXXXXX........XXXXooooooooXXXXXXXXXXXXXXXXXXXX....    ",
"    ....XXXXXXXX........XXXXooooooooXXXXXXXXXXXXXXXXXXXX....    ",
"    ....XXXXXXXX........XXXXooooooooXXXXXXXXXXXXXXXXXXXX....    ",
"    ....XXXXXXXX........XXXXooooooooXXXXXXXXXXXXXXXXXXXX....    ",
"    ....XXXXXXXXXXXXXXXXXXXXooooooooXXXXXXXXXXXXXXXXXXXX....    ",
"    ....XXXXXXXXXXXXXXXXXXXXooooooooXXXXXXXXXXXXXXXXXXXX....    ",
"    ....XXXXXXXXXXXXXXXXXXXXooooooooXXXXXXXXXXXXXXXXXXXX....    ",
"    ....XXXXXXXXXXXXXXXXXXXXooooooooXXXXXXXXXXXXXXXXXXXX....    ",
"    ....XXXX....XXXXXXXXXXXXXXXXXXXXXXXXXXXXXXXXXXXX........    ",
"    ....XXXX....XXXXXXXXXXXXXXXXXXXXXXXXXXXXXXXXXXXX........    ",
"    ....XXXX....XXXXXXXXXXXXXXXXXXXXXXXXXXXXXXXXXXXX........    ",
"    ....XXXX....XXXXXXXXXXXXXXXXXXXXXXXXXXXXXXXXXXXX........    ",
"    ....XXXXXXXXXXXXXXXXXXXXXXXXXXXX........XXXXXXXXXXXX....    ",
"    ....XXXXXXXXXXXXXXXXXXXXXXXXXXXX........XXXXXXXXXXXX....    ",
"    ....XXXXXXXXXXXXXXXXXXXXXXXXXXXX........XXXXXXXXXXXX....    ",
"    ....XXXXXXXXXXXXXXXXXXXXXXXXXXXX........XXXXXXXXXXXX....    ",
"    ....XXXXXXXX........XXXXXXXXXXXX........XXXX....XXXX....    ",
"    ....XXXXXXXX........XXXXXXXXXXXX........XXXX....XXXX....    ",
"    ....XXXXXXXX........XXXXXXXXXXXX........XXXX....XXXX....    ",
"    ....XXXXXXXX........XXXXXXXXXXXX........XXXX....XXXX....    ",
"    ....XXXXXXXX........XXXXXXXXXXXXXXXXXXXXXXXXXXXXXXXX....    ",
"    ....XXXXXXXX........XXXXXXXXXXXXXXXXXXXXXXXXXXXXXXXX....    ",
"    ....XXXXXXXX........XXXXXXXXXXXXXXXXXXXXXXXXXXXXXXXX....    ",
"    ....XXXXXXXX........XXXXXXXXXXXXXXXXXXXXXXXXXXXXXXXX....    ",
"        ................................................        ",
"        ................................................        ",
"        ................................................        ",
"        ................................................        ",
"                                                                ",
"                                                                ",
"                                                                ",
"                                                                "
};
