/* XPM */
static const char *coin_11771404573[] = {
/* columns rows colors chars-per-pixel */
"50 50 5 1 ",
"  c #1B1B1B",
". c #F2741B",
"X c #FBC41B",
"o c #FFF21B",
"O c #4C85B9",
/* pixels */
"OOOOOOOOOOOOOOO                    OOOOOOOOOOOOOOO",
"OOOOOOOOOOOOOOO                    OOOOOOOOOOOOOOO",
"OOOOOOOOOOOOOOO                    OOOOOOOOOOOOOOO",
"OOOOOOOOOOOOOOO                    OOOOOOOOOOOOOOO",
"OOOOOOOOOOOOOOO                    OOOOOOOOOOOOOOO",
"OOOOOOOOOO     oooooooooooooooooooo     OOOOOOOOOO",
"OOOOOOOOOO     oooooooooooooooooooo     OOOOOOOOOO",
"OOOOOOOOOO     oooooooooooooooooooo     OOOOOOOOOO",
"OOOOOOOOOO     oooooooooooooooooooo     OOOOOOOOOO",
"OOOOOOOOOO     oooooooooooooooooooo     OOOOOOOOOO",
"OOOOO     ooooooooooXXXXXXXXXXXXXXX.....     OOOOO",
"OOOOO     ooooooooooXXXXXXXXXXXXXXX.....     OOOOO",
"OOOOO     ooooooooooXXXXXXXXXXXXXXX.....     OOOOO",
"OOOOO     ooooooooooXXXXXXXXXXXXXXX.....     OOOOO",
"OOOOO     ooooooooooXXXXXXXXXXXXXXX.....     OOOOO",
"OOOOO     oooooXXXXXXXXXXoooooXXXXX.....     OOOOO",
"OOOOO     oooooXXXXXXXXXXoooooXXXXX.....     OOOOO",
"OOOOO     oooooXXXXXXXXXXoooooXXXXX.....     OOOOO",
"OOOOO     oooooXXXXXXXXXXoooooXXXXX.....     OOOOO",
"OOOOO     oooooXXXXXXXXXXoooooXXXXX.....     OOOOO",
"OOOOO     oooooXXXXXooooo.....XXXXX.....     OOOOO",
"OOOOO     oooooXXXXXooooo.....XXXXX.....     OOOOO",
"OOOOO     oooooXXXXXooooo.....XXXXX.....     OOOOO",
"OOOOO     oooooXXXXXooooo.....XXXXX.....     OOOOO",
"OOOOO     oooooXXXXXooooo.....XXXXX.....     OOOOO",
"OOOOO     oooooXXXXXooooo.....XXXXX.....     OOOOO",
"OOOOO     oooooXXXXXooooo.....XXXXX.....     OOOOO",
"OOOOO     oooooXXXXXooooo.....XXXXX.....     OOOOO",
"OOOOO     oooooXXXXXooooo.....XXXXX.....     OOOOO",
"OOOOO     oooooXXXXXooooo.....XXXXX.....     OOOOO",
"OOOOO     oooooXXXXX.....XXXXXXXXXX.....     OOOOO",
"OOOOO     oooooXXXXX.....XXXXXXXXXX.....     OOOOO",
"OOOOO     oooooXXXXX.....XXXXXXXXXX.....     OOOOO",
"OOOOO     oooooXXXXX.....XXXXXXXXXX.....     OOOOO",
"OOOOO     oooooXXXXX.....XXXXXXXXXX.....     OOOOO",
"OOOOO     oooooXXXXXXXXXXXXXXX..........     OOOOO",
"OOOOO     oooooXXXXXXXXXXXXXXX..........     OOOOO",
"OOOOO     oooooXXXXXXXXXXXXXXX..........     OOOOO",
"OOOOO     oooooXXXXXXXXXXXXXXX..........     OOOOO",
"OOOOO     oooooXXXXXXXXXXXXXXX..........     OOOOO",
"OOOOOOOOOO     ....................     OOOOOOOOOO",
"OOOOOOOOOO     ....................     OOOOOOOOOO",
"OOOOOOOOOO     ....................     OOOOOOOOOO",
"OOOOOOOOOO     ....................     OOOOOOOOOO",
"OOOOOOOOOO     ....................     OOOOOOOOOO",
"OOOOOOOOOOOOOOO                    OOOOOOOOOOOOOOO",
"OOOOOOOOOOOOOOO                    OOOOOOOOOOOOOOO",
"OOOOOOOOOOOOOOO                    OOOOOOOOOOOOOOO",
"OOOOOOOOOOOOOOO                    OOOOOOOOOOOOOOO",
"OOOOOOOOOOOOOOO                    OOOOOOOOOOOOOOO"
};
