/* XPM */
static char *a81643a8844c4311e58a3cff61cc5c349NWOpFjHM2URaueR[] = {
/* columns rows colors chars-per-pixel */
"50 50 5 1 ",
"  c None",
". c #1B1B1B",
"X c #F2741B",
"o c #FBC41B",
"O c #FFF21B",
/* pixels */
"               ....................               ",
"               ....................               ",
"               ....................               ",
"               ....................               ",
"               ....................               ",
"          .....OOOOOOOOOOOOOOOOOOOO.....          ",
"          .....OOOOOOOOOOOOOOOOOOOO.....          ",
"          .....OOOOOOOOOOOOOOOOOOOO.....          ",
"          .....OOOOOOOOOOOOOOOOOOOO.....          ",
"          .....OOOOOOOOOOOOOOOOOOOO.....          ",
"     .....OOOOOOOOOOoooooooooooooooXXXXX.....     ",
"     .....OOOOOOOOOOoooooooooooooooXXXXX.....     ",
"     .....OOOOOOOOOOoooooooooooooooXXXXX.....     ",
"     .....OOOOOOOOOOoooooooooooooooXXXXX.....     ",
"     .....OOOOOOOOOOoooooooooooooooXXXXX.....     ",
"     .....OOOOOooooooooooOOOOOoooooXXXXX.....     ",
"     .....OOOOOooooooooooOOOOOoooooXXXXX.....     ",
"     .....OOOOOooooooooooOOOOOoooooXXXXX.....     ",
"     .....OOOOOooooooooooOOOOOoooooXXXXX.....     ",
"     .....OOOOOooooooooooOOOOOoooooXXXXX.....     ",
"     .....OOOOOoooooOOOOOXXXXXoooooXXXXX.....     ",
"     .....OOOOOoooooOOOOOXXXXXoooooXXXXX.....     ",
"     .....OOOOOoooooOOOOOXXXXXoooooXXXXX.....     ",
"     .....OOOOOoooooOOOOOXXXXXoooooXXXXX.....     ",
"     .....OOOOOoooooOOOOOXXXXXoooooXXXXX.....     ",
"     .....OOOOOoooooOOOOOXXXXXoooooXXXXX.....     ",
"     .....OOOOOoooooOOOOOXXXXXoooooXXXXX.....     ",
"     .....OOOOOoooooOOOOOXXXXXoooooXXXXX.....     ",
"     .....OOOOOoooooOOOOOXXXXXoooooXXXXX.....     ",
"     .....OOOOOoooooOOOOOXXXXXoooooXXXXX.....     ",
"     .....OOOOOoooooXXXXXooooooooooXXXXX.....     ",
"     .....OOOOOoooooXXXXXooooooooooXXXXX.....     ",
"     .....OOOOOoooooXXXXXooooooooooXXXXX.....     ",
"     .....OOOOOoooooXXXXXooooooooooXXXXX.....     ",
"     .....OOOOOoooooXXXXXooooooooooXXXXX.....     ",
"     .....OOOOOoooooooooooooooXXXXXXXXXX.....     ",
"     .....OOOOOoooooooooooooooXXXXXXXXXX.....     ",
"     .....OOOOOoooooooooooooooXXXXXXXXXX.....     ",
"     .....OOOOOoooooooooooooooXXXXXXXXXX.....     ",
"     .....OOOOOoooooooooooooooXXXXXXXXXX.....     ",
"          .....XXXXXXXXXXXXXXXXXXXX.....          ",
"          .....XXXXXXXXXXXXXXXXXXXX.....          ",
"          .....XXXXXXXXXXXXXXXXXXXX.....          ",
"          .....XXXXXXXXXXXXXXXXXXXX.....          ",
"          .....XXXXXXXXXXXXXXXXXXXX.....          ",
"               ....................               ",
"               ....................               ",
"               ....................               ",
"               ....................               ",
"               ....................               "
};
