/* XPM */
static char *_a975750be7c468fa536b35343504b3b42BIZvSmg9Ann1kc[] = {
/* columns rows colors chars-per-pixel */
"50 50 5 1 ",
"  c None",
". c #1B1B1B",
"X c #F2741B",
"o c #FBC41B",
"O c #FFF21B",
/* pixels */
"               ....................               ",
"               ....................               ",
"               ....................               ",
"               ....................               ",
"               ....................               ",
"          .....OOOOOOOOOOOOOOOOOOOO.....          ",
"          .....OOOOOOOOOOOOOOOOOOOO.....          ",
"          .....OOOOOOOOOOOOOOOOOOOO.....          ",
"          .....OOOOOOOOOOOOOOOOOOOO.....          ",
"          .....OOOOOOOOOOOOOOOOOOOO.....          ",
"          .....OOOOOOOOOOoooooXXXXX.....          ",
"          .....OOOOOOOOOOoooooXXXXX.....          ",
"          .....OOOOOOOOOOoooooXXXXX.....          ",
"          .....OOOOOOOOOOoooooXXXXX.....          ",
"          .....OOOOOOOOOOoooooXXXXX.....          ",
"          .....OOOOOooooooooooXXXXX.....          ",
"          .....OOOOOooooooooooXXXXX.....          ",
"          .....OOOOOooooooooooXXXXX.....          ",
"          .....OOOOOooooooooooXXXXX.....          ",
"          .....OOOOOooooooooooXXXXX.....          ",
"          .....OOOOOOOOOOXXXXXXXXXX.....          ",
"          .....OOOOOOOOOOXXXXXXXXXX.....          ",
"          .....OOOOOOOOOOXXXXXXXXXX.....          ",
"          .....OOOOOOOOOOXXXXXXXXXX.....          ",
"          .....OOOOOOOOOOXXXXXXXXXX.....          ",
"          .....OOOOOOOOOOXXXXXXXXXX.....          ",
"          .....OOOOOOOOOOXXXXXXXXXX.....          ",
"          .....OOOOOOOOOOXXXXXXXXXX.....          ",
"          .....OOOOOOOOOOXXXXXXXXXX.....          ",
"          .....OOOOOOOOOOXXXXXXXXXX.....          ",
"          .....OOOOOooooooooooXXXXX.....          ",
"          .....OOOOOooooooooooXXXXX.....          ",
"          .....OOOOOooooooooooXXXXX.....          ",
"          .....OOOOOooooooooooXXXXX.....          ",
"          .....OOOOOooooooooooXXXXX.....          ",
"          .....OOOOOoooooXXXXXXXXXX.....          ",
"          .....OOOOOoooooXXXXXXXXXX.....          ",
"          .....OOOOOoooooXXXXXXXXXX.....          ",
"          .....OOOOOoooooXXXXXXXXXX.....          ",
"          .....OOOOOoooooXXXXXXXXXX.....          ",
"          .....XXXXXXXXXXXXXXXXXXXX.....          ",
"          .....XXXXXXXXXXXXXXXXXXXX.....          ",
"          .....XXXXXXXXXXXXXXXXXXXX.....          ",
"          .....XXXXXXXXXXXXXXXXXXXX.....          ",
"          .....XXXXXXXXXXXXXXXXXXXX.....          ",
"               ....................               ",
"               ....................               ",
"               ....................               ",
"               ....................               ",
"               ....................               "
};
