/* XPM */
static char *_f6d93c5165e45cbd45342935f42c8b6OxKC9UZAOqYNCdju[] = {
/* columns rows colors chars-per-pixel */
"50 50 4 1 ",
"  c None",
". c #1B1B1B",
"X c #F2741B",
"o c #FFF21B",
/* pixels */
"                    ..........                    ",
"                    ..........                    ",
"                    ..........                    ",
"                    ..........                    ",
"                    ..........                    ",
"               .....oooooooooo.....               ",
"               .....oooooooooo.....               ",
"               .....oooooooooo.....               ",
"               .....oooooooooo.....               ",
"               .....oooooooooo.....               ",
"               .....oooooXXXXX.....               ",
"               .....oooooXXXXX.....               ",
"               .....oooooXXXXX.....               ",
"               .....oooooXXXXX.....               ",
"               .....oooooXXXXX.....               ",
"               .....oooooXXXXX.....               ",
"               .....oooooXXXXX.....               ",
"               .....oooooXXXXX.....               ",
"               .....oooooXXXXX.....               ",
"               .....oooooXXXXX.....               ",
"               .....oooooXXXXX.....               ",
"               .....oooooXXXXX.....               ",
"               .....oooooXXXXX.....               ",
"               .....oooooXXXXX.....               ",
"               .....oooooXXXXX.....               ",
"               .....oooooXXXXX.....               ",
"               .....oooooXXXXX.....               ",
"               .....oooooXXXXX.....               ",
"               .....oooooXXXXX.....               ",
"               .....oooooXXXXX.....               ",
"               .....oooooXXXXX.....               ",
"               .....oooooXXXXX.....               ",
"               .....oooooXXXXX.....               ",
"               .....oooooXXXXX.....               ",
"               .....oooooXXXXX.....               ",
"               .....oooooXXXXX.....               ",
"               .....oooooXXXXX.....               ",
"               .....oooooXXXXX.....               ",
"               .....oooooXXXXX.....               ",
"               .....oooooXXXXX.....               ",
"               .....XXXXXXXXXX.....               ",
"               .....XXXXXXXXXX.....               ",
"               .....XXXXXXXXXX.....               ",
"               .....XXXXXXXXXX.....               ",
"               .....XXXXXXXXXX.....               ",
"                    ..........                    ",
"                    ..........                    ",
"                    ..........                    ",
"                    ..........                    ",
"                    ..........                    "
};
