/* XPM */
static char *db8334839ff647d99472e451840d7b6bZKrIvZQ20uQhLw3a[] = {
/* columns rows colors chars-per-pixel */
"64 64 5 1 ",
"  c None",
". c #231C19",
"X c #864646",
"o c #B56B5F",
"O c #E7B09C",
/* pixels */
"    ........................................................    ",
"    ........................................................    ",
"    ........................................................    ",
"    ........................................................    ",
"....OOOOOOOOOOOO....OOOOOOOOOOOOOOOOOOOOOOOO....OOOOOOOOOOOO....",
"....OOOOOOOOOOOO....OOOOOOOOOOOOOOOOOOOOOOOO....OOOOOOOOOOOO....",
"....OOOOOOOOOOOO....OOOOOOOOOOOOOOOOOOOOOOOO....OOOOOOOOOOOO....",
"....OOOOOOOOOOOO....OOOOOOOOOOOOOOOOOOOOOOOO....OOOOOOOOOOOO....",
"....OOOO....oooo....OOOOooooooooooooooooXXXX....oooo....OOOO....",
"....OOOO....oooo....OOOOooooooooooooooooXXXX....oooo....OOOO....",
"....OOOO....oooo....OOOOooooooooooooooooXXXX....oooo....OOOO....",
"....OOOO....oooo....OOOOooooooooooooooooXXXX....oooo....OOOO....",
"....OOOOoooooooo....XXXXXXXXXXXXXXXXXXXXXXXX....ooooooooOOOO....",
"....OOOOoooooooo....XXXXXXXXXXXXXXXXXXXXXXXX....ooooooooOOOO....",
"....OOOOoooooooo....XXXXXXXXXXXXXXXXXXXXXXXX....ooooooooOOOO....",
"....OOOOoooooooo....XXXXXXXXXXXXXXXXXXXXXXXX....ooooooooOOOO....",
"....OOOOoooooooo................................ooooooooOOOO....",
"....OOOOoooooooo................................ooooooooOOOO....",
"....OOOOoooooooo................................ooooooooOOOO....",
"....OOOOoooooooo................................ooooooooOOOO....",
"....OOOOoooooooo....OOOOOOOOOOOOOOOOOOOOOOOO....ooooooooOOOO....",
"....OOOOoooooooo....OOOOOOOOOOOOOOOOOOOOOOOO....ooooooooOOOO....",
"....OOOOoooooooo....OOOOOOOOOOOOOOOOOOOOOOOO....ooooooooOOOO....",
"....OOOOoooooooo....OOOOOOOOOOOOOOOOOOOOOOOO....ooooooooOOOO....",
"....OOOOoooooooo....OOOOOOOOooooooooooooOOOO....ooooooooOOOO....",
"....OOOOoooooooo....OOOOOOOOooooooooooooOOOO....ooooooooOOOO....",
"....OOOOoooooooo....OOOOOOOOooooooooooooOOOO....ooooooooOOOO....",
"....OOOOoooooooo....OOOOOOOOooooooooooooOOOO....ooooooooOOOO....",
"....OOOOoooooooo....OOOOooooooooooooooooOOOO....ooooooooOOOO....",
"....OOOOoooooooo....OOOOooooooooooooooooOOOO....ooooooooOOOO....",
"....OOOOoooooooo....OOOOooooooooooooooooOOOO....ooooooooOOOO....",
"....OOOOoooooooo....OOOOooooooooooooooooOOOO....ooooooooOOOO....",
"....OOOOoooooooo....OOOOooooooooooooooooXXXX....ooooooooXXXX....",
"....OOOOoooooooo....OOOOooooooooooooooooXXXX....ooooooooXXXX....",
"....OOOOoooooooo....OOOOooooooooooooooooXXXX....ooooooooXXXX....",
"....OOOOoooooooo....OOOOooooooooooooooooXXXX....ooooooooXXXX....",
"....OOOOoooooooo....XXXXooooooooooooXXXXXXXX....ooooooooXXXX....",
"....OOOOoooooooo....XXXXooooooooooooXXXXXXXX....ooooooooXXXX....",
"....OOOOoooooooo....XXXXooooooooooooXXXXXXXX....ooooooooXXXX....",
"....OOOOoooooooo....XXXXooooooooooooXXXXXXXX....ooooooooXXXX....",
"....XXXXoooooooo....XXXXXXXXXXXXXXXXXXXXXXXX....ooooooooXXXX....",
"....XXXXoooooooo....XXXXXXXXXXXXXXXXXXXXXXXX....ooooooooXXXX....",
"....XXXXoooooooo....XXXXXXXXXXXXXXXXXXXXXXXX....ooooooooXXXX....",
"....XXXXoooooooo....XXXXXXXXXXXXXXXXXXXXXXXX....ooooooooXXXX....",
"....XXXXoooooooo................................ooooooooXXXX....",
"....XXXXoooooooo................................ooooooooXXXX....",
"....XXXXoooooooo................................ooooooooXXXX....",
"....XXXXoooooooo................................ooooooooXXXX....",
"....XXXXoooooooo....OOOOOOOOOOOOOOOOOOOOOOOO....ooooooooXXXX....",
"....XXXXoooooooo....OOOOOOOOOOOOOOOOOOOOOOOO....ooooooooXXXX....",
"....XXXXoooooooo....OOOOOOOOOOOOOOOOOOOOOOOO....ooooooooXXXX....",
"....XXXXoooooooo....OOOOOOOOOOOOOOOOOOOOOOOO....ooooooooXXXX....",
"....XXXX....oooo....OOOOooooooooooooooooXXXX....oooo....XXXX....",
"....XXXX....oooo....OOOOooooooooooooooooXXXX....oooo....XXXX....",
"....XXXX....oooo....OOOOooooooooooooooooXXXX....oooo....XXXX....",
"....XXXX....oooo....OOOOooooooooooooooooXXXX....oooo....XXXX....",
"....XXXXXXXXXXXX....XXXXXXXXXXXXXXXXXXXXXXXX....XXXXXXXXXXXX....",
"....XXXXXXXXXXXX....XXXXXXXXXXXXXXXXXXXXXXXX....XXXXXXXXXXXX....",
"....XXXXXXXXXXXX....XXXXXXXXXXXXXXXXXXXXXXXX....XXXXXXXXXXXX....",
"....XXXXXXXXXXXX....XXXXXXXXXXXXXXXXXXXXXXXX....XXXXXXXXXXXX....",
"    ........................................................    ",
"    ........................................................    ",
"    ........................................................    ",
"    ........................................................    "
};
