/* XPM */
static char *dce06ed391494e66b08177f681fe8486wMt5SKn5Q8B7KmMR[] = {
/* columns rows colors chars-per-pixel */
"64 64 8 1 ",
"  c #0E0D0E",
". c #0A7030",
"X c #7C776F",
"o c #D2202C",
"O c #EBA724",
"+ c #4C85B9",
"@ c #B3AAA1",
"# c #EADFD1",
/* pixels */
"+++++++++++++++++++++++++++                        +++++++++++++",
"+++++++++++++++++++++++++++                        +++++++++++++",
"+++++++++++++++++++++++++++                        +++++++++++++",
"++++++++++++++++++++++++       ooooooooooooooooo       +++++++++",
"++++++++++++++++++++++++       ooooooooooooooooo       +++++++++",
"++++++++++++++++++++++++       ooooooooooooooooo       +++++++++",
"++++++++++++++++++++++++       ooooooooooooooooo       +++++++++",
"++++++++++++++++++++++++   oooooooooooooo       ooo    +++++++++",
"++++++++++++++++++++++++   oooooooooooooo       ooo    +++++++++",
"++++++++++++++++++++++++   oooooooooooooo       ooo    +++++++++",
"++++++++++++++                 oooooo                  +++++++++",
"++++++++++++++                 oooooo                  +++++++++",
"++++++++++++++                 oooooo                  +++++++++",
"++++++++++++++   XXXXXXXXXXXXXXXXX##########    ++++++++++++++++",
"++++++++++++++   XXXXXXXXXXXXXXXXX##########    ++++++++++++++++",
"++++++++++++++   XXXXXXXXXXXXXXXXX##########    ++++++++++++++++",
"++++++++++++++   XXXXXXXXXXXXXXXXX##########    ++++++++++++++++",
"++++++++++                               ###    ++++++++++++++++",
"++++++++++                               ###    ++++++++++++++++",
"++++++++++                               ###    ++++++++++++++++",
"++++++++++    @@@@@@@@@@@@@##########    XXX    ++++++++++++++++",
"++++++++++    @@@@@@@@@@@@@##########    XXX    ++++++++++++++++",
"++++++++++    @@@@@@@@@@@@@##########    XXX    ++++++++++++++++",
"++++++++++    @@@@@@@@@@@@@##########    XXX    ++++++++++++++++",
"++++++++++    @@@@   @@@   @@@   ####    XXX    ++++++++++++++++",
"++++++++++    @@@@   @@@   @@@   ####    XXX    ++++++++++++++++",
"++++++++++    @@@@   @@@   @@@   ####    XXX    ++++++++++++++++",
"++++++++++    @@@@   @@@   @@@   @@@@    XXX    ++++++++++++++++",
"++++++++++    @@@@   @@@   @@@   @@@@    XXX    ++++++++++++++++",
"++++++++++    @@@@   @@@   @@@   @@@@    XXX    ++++++++++++++++",
"++++++++++    @@@@   @@@   @@@   @@@@    XXX    ++++++++++++++++",
"++++++++++    @@@@   @@@   @@@   @@@@    XXX    ++++++++++++++++",
"++++++++++    @@@@   @@@   @@@   @@@@    XXX    ++++++++++++++++",
"++++++++++    @@@@   @@@   @@@   @@@@    XXX    ++++++++++++++++",
"++++++++++    @@@@@@@@@@@@@@@@@@@@@@@    XXX    ++++++++++++++++",
"++++++++++    @@@@@@@@@@@@@@@@@@@@@@@    XXX    ++++++++++++++++",
"++++++++++    @@@@@@@@@@@@@@@@@@@@@@@    XXX    ++++++++++++++++",
"++++++++++                                         +++++++++++++",
"++++++++++                                         +++++++++++++",
"++++++++++                                         +++++++++++++",
"++++++++++++++   OOOOOOOOOOOOOOOOOOOO...........   +++++++++++++",
"++++++++++++++   OOOOOOOOOOOOOOOOOOOO...........   +++++++++++++",
"++++++++++++++   OOOOOOOOOOOOOOOOOOOO...........   +++++++++++++",
"++++++++++++++   OOOOOOOOOOOOOOOOOOOO...........   +++++++++++++",
"++++++++++++++                    OOO...........   +++++++++++++",
"++++++++++++++                    OOO...........   +++++++++++++",
"++++++++++++++                    OOO...........   +++++++++++++",
"++++++++++++++   XXXXXXXXXXXXXX   OOO...........   +++++++++++++",
"++++++++++++++   XXXXXXXXXXXXXX   OOO...........   +++++++++++++",
"++++++++++++++   XXXXXXXXXXXXXX   OOO...........   +++++++++++++",
"++++++++++++++   XXXXXXXXXXXXXX   OOO...........   +++++++++++++",
"++++++++++++++   XXXXXXXXXXXXXX   OOO...........   +++++++++++++",
"++++++++++++++   XXXXXXXXXXXXXX   OOO...........   +++++++++++++",
"++++++++++++++   XXXXXXXXXXXXXX   OOO...........   +++++++++++++",
"++++++++++++++   @@@@@@@          OOO...........   +++++++++++++",
"++++++++++++++   @@@@@@@          OOO...........   +++++++++++++",
"++++++++++++++   @@@@@@@          OOO...........   +++++++++++++",
"++++++++++++++       @@@          OOOOOOOOOOOOOO   +++++++++++++",
"++++++++++++++       @@@          OOOOOOOOOOOOOO   +++++++++++++",
"++++++++++++++       @@@          OOOOOOOOOOOOOO   +++++++++++++",
"++++++++++++++       @@@          OOOOOOOOOOOOOO   +++++++++++++",
"+++++++++++++++++          ++++                    +++++++++++++",
"+++++++++++++++++          ++++                    +++++++++++++",
"+++++++++++++++++          ++++                    +++++++++++++"
};
