/* XPM */
static char *_d891596fc184472fca86597ea5e0375ZlijAH7DQR552pUg[] = {
/* columns rows colors chars-per-pixel */
"64 64 8 1 ",
"  c None",
". c #0E0D0E",
"X c #0A7030",
"o c #7C776F",
"O c #D2202C",
"+ c #EBA724",
"@ c #B3AAA1",
"# c #EADFD1",
/* pixels */
"              ........................                          ",
"              ........................                          ",
"              ........................                          ",
"          .......OOOOOOOOOOOOOOOOO.......                       ",
"          .......OOOOOOOOOOOOOOOOO.......                       ",
"          .......OOOOOOOOOOOOOOOOO.......                       ",
"          .......OOOOOOOOOOOOOOOOO.......                       ",
"          ....OOO.......OOOOOOOOOOOOOO...                       ",
"          ....OOO.......OOOOOOOOOOOOOO...                       ",
"          ....OOO.......OOOOOOOOOOOOOO...                       ",
"          ..................OOOOOO.................             ",
"          ..................OOOOOO.................             ",
"          ..................OOOOOO.................             ",
"                 ....##########ooooooooooooooooo...             ",
"                 ....##########ooooooooooooooooo...             ",
"                 ....##########ooooooooooooooooo...             ",
"                 ....##########ooooooooooooooooo...             ",
"                 ....###...............................         ",
"                 ....###...............................         ",
"                 ....###...............................         ",
"                 ....ooo....##########@@@@@@@@@@@@@....         ",
"                 ....ooo....##########@@@@@@@@@@@@@....         ",
"                 ....ooo....##########@@@@@@@@@@@@@....         ",
"                 ....ooo....##########@@@@@@@@@@@@@....         ",
"                 ....ooo....####...@@@...@@@...@@@@....         ",
"                 ....ooo....####...@@@...@@@...@@@@....         ",
"                 ....ooo....####...@@@...@@@...@@@@....         ",
"                 ....ooo....@@@@...@@@...@@@...@@@@....         ",
"                 ....ooo....@@@@...@@@...@@@...@@@@....         ",
"                 ....ooo....@@@@...@@@...@@@...@@@@....         ",
"                 ....ooo....@@@@...@@@...@@@...@@@@....         ",
"                 ....ooo....@@@@...@@@...@@@...@@@@....         ",
"                 ....ooo....@@@@...@@@...@@@...@@@@....         ",
"                 ....ooo....@@@@...@@@...@@@...@@@@....         ",
"                 ....ooo....@@@@@@@@@@@@@@@@@@@@@@@....         ",
"                 ....ooo....@@@@@@@@@@@@@@@@@@@@@@@....         ",
"                 ....ooo....@@@@@@@@@@@@@@@@@@@@@@@....         ",
"              .........................................         ",
"              .........................................         ",
"              .........................................         ",
"              ...XXXXXXXXXXX++++++++++++++++++++...             ",
"              ...XXXXXXXXXXX++++++++++++++++++++...             ",
"              ...XXXXXXXXXXX++++++++++++++++++++...             ",
"              ...XXXXXXXXXXX++++++++++++++++++++...             ",
"              ...XXXXXXXXXXX+++....................             ",
"              ...XXXXXXXXXXX+++....................             ",
"              ...XXXXXXXXXXX+++....................             ",
"              ...XXXXXXXXXXX+++...oooooooooooooo...             ",
"              ...XXXXXXXXXXX+++...oooooooooooooo...             ",
"              ...XXXXXXXXXXX+++...oooooooooooooo...             ",
"              ...XXXXXXXXXXX+++...oooooooooooooo...             ",
"              ...XXXXXXXXXXX+++...oooooooooooooo...             ",
"              ...XXXXXXXXXXX+++...oooooooooooooo...             ",
"              ...XXXXXXXXXXX+++...oooooooooooooo...             ",
"              ...XXXXXXXXXXX+++..........@@@@@@@...             ",
"              ...XXXXXXXXXXX+++..........@@@@@@@...             ",
"              ...XXXXXXXXXXX+++..........@@@@@@@...             ",
"              ...++++++++++++++..........@@@.......             ",
"              ...++++++++++++++..........@@@.......             ",
"              ...++++++++++++++..........@@@.......             ",
"              ...++++++++++++++..........@@@.......             ",
"              ....................    ..........                ",
"              ....................    ..........                ",
"              ....................    ..........                "
};
