/* XPM */
static char *bae627174de34a9485c53efdb8cab728VpnmfhwNCowCqcFc[] = {
/* columns rows colors chars-per-pixel */
"64 64 4 1 ",
"  c #242B33",
". c #3D4857",
"X c #636B85",
"o c #AEB4CE",
/* pixels */
"                                                                ",
"                                                                ",
"                                                                ",
"                                                                ",
"        oooooooooooooooooooooooooooooooooooooooooooooooo        ",
"        oooooooooooooooooooooooooooooooooooooooooooooooo        ",
"        oooooooooooooooooooooooooooooooooooooooooooooooo        ",
"        oooooooooooooooooooooooooooooooooooooooooooooooo        ",
"    ooooooooooooXXXXooooooooooooXXXXXXXXXXXXXXXXoooooooooooo    ",
"    ooooooooooooXXXXooooooooooooXXXXXXXXXXXXXXXXoooooooooooo    ",
"    ooooooooooooXXXXooooooooooooXXXXXXXXXXXXXXXXoooooooooooo    ",
"    ooooooooooooXXXXooooooooooooXXXXXXXXXXXXXXXXoooooooooooo    ",
"    ooooooooXXXXXXXXooooooooooooXXXXXXXXXXXXXXXXXXXXoooooooo    ",
"    ooooooooXXXXXXXXooooooooooooXXXXXXXXXXXXXXXXXXXXoooooooo    ",
"    ooooooooXXXXXXXXooooooooooooXXXXXXXXXXXXXXXXXXXXoooooooo    ",
"    ooooooooXXXXXXXXooooooooooooXXXXXXXXXXXXXXXXXXXXoooooooo    ",
"    ooooXXXXXXXXXXXXooooooooooooXXXXooooooooXXXXXXXXXXXXoooo    ",
"    ooooXXXXXXXXXXXXooooooooooooXXXXooooooooXXXXXXXXXXXXoooo    ",
"    ooooXXXXXXXXXXXXooooooooooooXXXXooooooooXXXXXXXXXXXXoooo    ",
"    ooooXXXXXXXXXXXXooooooooooooXXXXooooooooXXXXXXXXXXXXoooo    ",
"    ooooXXXXooooXXXXXXXXXXXXXXXXXXXXooooooooXXXXXXXXXXXXoooo    ",
"    ooooXXXXooooXXXXXXXXXXXXXXXXXXXXooooooooXXXXXXXXXXXXoooo    ",
"    ooooXXXXooooXXXXXXXXXXXXXXXXXXXXooooooooXXXXXXXXXXXXoooo    ",
"    ooooXXXXooooXXXXXXXXXXXXXXXXXXXXooooooooXXXXXXXXXXXXoooo    ",
"    ooooXXXXXXXXXXXXXXXXXXXXXXXXXXXXXXXXXXXXXXXXXXXXXXXXoooo    ",
"    ooooXXXXXXXXXXXXXXXXXXXXXXXXXXXXXXXXXXXXXXXXXXXXXXXXoooo    ",
"    ooooXXXXXXXXXXXXXXXXXXXXXXXXXXXXXXXXXXXXXXXXXXXXXXXXoooo    ",
"    ooooXXXXXXXXXXXXXXXXXXXXXXXXXXXXXXXXXXXXXXXXXXXXXXXXoooo    ",
"    ooooXXXXXXXX........XXXXXXXXXXXXXXXXXXXXXXXXooooXXXXoooo    ",
"    ooooXXXXXXXX........XXXXXXXXXXXXXXXXXXXXXXXXooooXXXXoooo    ",
"    ooooXXXXXXXX........XXXXXXXXXXXXXXXXXXXXXXXXooooXXXXoooo    ",
"    ooooXXXXXXXX........XXXXXXXXXXXXXXXXXXXXXXXXooooXXXXoooo    ",
"    ....XXXXXXXX........XXXXooooooooXXXXXXXXXXXXXXXXXXXX....    ",
"    ....XXXXXXXX........XXXXooooooooXXXXXXXXXXXXXXXXXXXX....    ",
"    ....XXXXXXXX........XXXXooooooooXXXXXXXXXXXXXXXXXXXX....    ",
"    ....XXXXXXXX........XXXXooooooooXXXXXXXXXXXXXXXXXXXX....    ",
"    ....XXXXXXXXXXXXXXXXXXXXooooooooXXXXXXXXXXXXXXXXXXXX....    ",
"    ....XXXXXXXXXXXXXXXXXXXXooooooooXXXXXXXXXXXXXXXXXXXX....    ",
"    ....XXXXXXXXXXXXXXXXXXXXooooooooXXXXXXXXXXXXXXXXXXXX....    ",
"    ....XXXXXXXXXXXXXXXXXXXXooooooooXXXXXXXXXXXXXXXXXXXX....    ",
"    ....XXXX....XXXXXXXXXXXXXXXXXXXXXXXXXXXXXXXXXXXX........    ",
"    ....XXXX....XXXXXXXXXXXXXXXXXXXXXXXXXXXXXXXXXXXX........    ",
"    ....XXXX....XXXXXXXXXXXXXXXXXXXXXXXXXXXXXXXXXXXX........    ",
"    ....XXXX....XXXXXXXXXXXXXXXXXXXXXXXXXXXXXXXXXXXX........    ",
"    ....XXXXXXXXXXXXXXXXXXXXXXXXXXXX........XXXXXXXXXXXX....    ",
"    ....XXXXXXXXXXXXXXXXXXXXXXXXXXXX........XXXXXXXXXXXX....    ",
"    ....XXXXXXXXXXXXXXXXXXXXXXXXXXXX........XXXXXXXXXXXX....    ",
"    ....XXXXXXXXXXXXXXXXXXXXXXXXXXXX........XXXXXXXXXXXX....    ",
"    ....XXXXXXXX........XXXXXXXXXXXX........XXXX....XXXX....    ",
"    ....XXXXXXXX........XXXXXXXXXXXX........XXXX....XXXX....    ",
"    ....XXXXXXXX........XXXXXXXXXXXX........XXXX....XXXX....    ",
"    ....XXXXXXXX........XXXXXXXXXXXX........XXXX....XXXX....    ",
"    ....XXXXXXXX........XXXXXXXXXXXXXXXXXXXXXXXXXXXXXXXX....    ",
"    ....XXXXXXXX........XXXXXXXXXXXXXXXXXXXXXXXXXXXXXXXX....    ",
"    ....XXXXXXXX........XXXXXXXXXXXXXXXXXXXXXXXXXXXXXXXX....    ",
"    ....XXXXXXXX........XXXXXXXXXXXXXXXXXXXXXXXXXXXXXXXX....    ",
"        ................................................        ",
"        ................................................        ",
"        ................................................        ",
"        ................................................        ",
"                                                                ",
"                                                                ",
"                                                                ",
"                                                                "
};
